assets/images/react.svg

<svg xmlns="http://www.w3.org/2000/svg" viewBox="0 0 80 80" width="160" height="160" xmlns:v="https://vecta.io/nano"><path fill="#8bb7f0" d="M46.5 40c0 3.593-2.907 6.5-6.5 6.5s-6.5-2.907-6.5-6.5 2.907-6.5 6.5-6.5 6.5 2.907 6.5 6.5z"/><path fill="#4e7ab5" d="M40,47c-3.859,0-7-3.14-7-7s3.141-7,7-7s7,3.14,7,7S43.859,47,40,47z M40,34c-3.309,0-6,2.691-6,6 s2.691,6,6,6s6-2.691,6-6S43.309,34,40,34z"/><path fill="#8bb7f0" d="M24.474 75.503c-1.711 0-3.269-.392-4.632-1.164-2.28-1.293-3.856-3.521-4.686-6.62-.965-3.607-.85-8.398.332-13.878C5.956 50.562.5 45.531.5 40s5.455-10.562 14.987-13.84c-1.182-5.481-1.298-10.272-.333-13.879.83-3.1 2.406-5.328 4.685-6.62 1.362-.772 2.921-1.164 4.632-1.164 4.388 0 9.891 2.73 15.531 7.698 5.64-4.963 11.141-7.691 15.524-7.691 1.711 0 3.269.392 4.632 1.164 2.277 1.291 3.854 3.515 4.684 6.611.966 3.606.85 8.398-.333 13.88C74.043 29.437 79.5 34.468 79.5 40s-5.457 10.563-14.991 13.842c1.182 5.481 1.298 10.272.332 13.878-.83 3.097-2.405 5.321-4.68 6.612-1.364.772-2.923 1.164-4.633 1.164-4.386 0-9.889-2.728-15.527-7.689-5.64 4.967-11.142 7.696-15.527 7.696zm-5.137-20.497c-.991 4.717-1.102 8.747-.316 11.679.542 2.026 1.481 3.431 2.794 4.175.753.427 1.648.644 2.659.644 3.394 0 7.862-2.282 12.621-6.437-2.385-2.402-4.713-5.121-6.928-8.091-3.831-.416-7.471-1.078-10.83-1.97zm23.569 10.059c4.758 4.151 9.227 6.431 12.621 6.432 1.011 0 1.906-.217 2.661-.644 1.309-.742 2.246-2.144 2.787-4.167.786-2.934.676-6.963-.315-11.679-3.362.892-7.003 1.554-10.833 1.97-2.214 2.97-4.539 5.688-6.921 8.088zm-7.34-7.672c1.452 1.776 2.938 3.433 4.434 4.94a69.42 69.42 0 0 0 4.43-4.94A93.4 93.4 0 0 1 40 57.5a93.6 93.6 0 0 1-4.434-.107zm-3.217-4.214A90.32 90.32 0 0 0 40 53.5c2.585 0 5.155-.108 7.646-.32a88.99 88.99 0 0 0 4.214-6.495 86.72 86.72 0 0 0 3.547-6.686 86.61 86.61 0 0 0-3.546-6.684 88.83 88.83 0 0 0-4.215-6.495c-2.489-.212-5.059-.32-7.646-.32s-5.159.108-7.647.321c-1.49 2.086-2.909 4.27-4.219 6.495a86.61 86.61 0 0 0-3.546 6.686 86.99 86.99 0 0 0 3.545 6.684 88.62 88.62 0 0 0 4.216 6.493zm25.142-8.4a91.58 91.58 0 0 1-2.185 3.934 91.35 91.35 0 0 1-2.386 3.836c2.374-.366 4.645-.835 6.771-1.4-.59-2.049-1.329-4.186-2.2-6.37zm-37.187 6.369a65.45 65.45 0 0 0 6.768 1.4 92.58 92.58 0 0 1-2.386-3.835 91.92 91.92 0 0 1-2.183-3.931c-.867 2.174-1.605 4.309-2.199 6.366zM59.816 40c1.528 3.391 2.773 6.743 3.708 9.977C70.926 47.373 75.5 43.574 75.5 40s-4.574-7.373-11.976-9.977c-.933 3.234-2.179 6.586-3.708 9.977zm-43.344-9.975C9.073 32.628 4.5 36.427 4.5 40s4.573 7.373 11.974 9.976c.934-3.235 2.179-6.587 3.705-9.974-1.527-3.388-2.772-6.74-3.707-9.977zm3.831-1.173c.594 2.054 1.332 4.19 2.2 6.368a92.46 92.46 0 0 1 2.184-3.932 91.13 91.13 0 0 1 2.388-3.836c-2.374.365-4.644.835-6.772 1.4zm32.619-1.401c.837 1.277 1.638 2.563 2.386 3.837a91.98 91.98 0 0 1 2.185 3.932c.869-2.177 1.607-4.313 2.201-6.369-2.13-.565-4.4-1.035-6.772-1.4zM24.471 8.497c-1.011 0-1.905.216-2.657.644-1.312.744-2.252 2.149-2.795 4.175-.785 2.935-.675 6.964.317 11.679 3.36-.892 7.002-1.555 10.834-1.971 2.217-2.971 4.545-5.688 6.927-8.088-4.76-4.157-9.231-6.439-12.626-6.439zm25.357 14.526c3.83.416 7.471 1.078 10.833 1.97.992-4.716 1.103-8.746.316-11.68-.542-2.022-1.48-3.424-2.79-4.166-.754-.427-1.649-.644-2.661-.644-3.393 0-7.86 2.281-12.619 6.433 2.38 2.399 4.706 5.117 6.921 8.087zM40 22.5c1.454 0 2.939.036 4.431.107-1.45-1.774-2.936-3.43-4.429-4.938-1.497 1.51-2.982 3.166-4.432 4.938A93.4 93.4 0 0 1 40 22.5z"/><path fill="#4e7ab5" d="M24.471 4.997c4.494 0 9.996 2.91 15.532 7.867 5.535-4.953 11.034-7.86 15.524-7.86 1.623 0 3.099.37 4.386 1.099 2.156 1.222 3.652 3.343 4.446 6.306 1.077 3.917.851 8.74-.434 14.08C73.147 29.57 79 34.431 79 40s-5.853 10.43-15.076 13.512c1.341 5.773 1.566 10.726.434 14.079-.794 2.962-2.289 5.084-4.443 6.306-1.289.73-2.46 1.103-4.082 1.103h-.417c-4.492 0-9.882-2.91-15.416-7.861-5.535 4.956-11.035 7.864-15.527 7.864-1.623 0-3.099-.37-4.386-1.099-2.158-1.225-3.655-3.349-4.448-6.314-1.19-3.717-.95-8.603.434-14.079C6.852 50.429 1 45.569 1 40s5.852-10.429 15.072-13.511c-.687-3.059-1.126-5.899-1.141-8.489-.012-2.046.267-3.949.707-5.59.794-2.966 2.29-5.09 4.448-6.314 1.286-.73 2.762-1.099 4.385-1.099m-5.513 20.617c3.477-.955 7.338-1.677 11.483-2.117 2.382-3.21 4.875-6.096 7.386-8.584-4.872-4.346-9.616-6.917-13.356-6.917-1.099 0-2.075.238-2.904.709-1.433.813-2.452 2.32-3.031 4.481-.858 3.202-.663 7.53.422 12.428m42.081-.001c1.085-4.898 1.28-9.227.422-12.429-.578-2.157-1.597-3.661-3.027-4.472-.83-.471-1.809-.709-2.907-.709-3.737 0-8.478 2.568-13.349 6.91 2.51 2.488 5 5.374 7.38 8.583 4.143.44 8.004 1.162 11.481 2.117m-26.562-2.447c1.802-.107 3.609-.2 5.488-.2s3.755.094 5.557.2c-1.808-2.279-3.664-4.361-5.521-6.204-1.857 1.843-3.714 3.925-5.524 6.204M40 54c2.761 0 5.404-.121 7.918-.342 1.519-2.117 2.988-4.365 4.372-6.719 1.353-2.299 2.577-4.626 3.67-6.939a87.03 87.03 0 0 0-3.669-6.937c-1.385-2.355-2.853-4.602-4.373-6.719A89.63 89.63 0 0 0 40 26a90.09 90.09 0 0 0-7.92.343 88.12 88.12 0 0 0-4.376 6.719 87.24 87.24 0 0 0-3.669 6.939c1.093 2.313 2.316 4.639 3.668 6.937a88.41 88.41 0 0 0 4.374 6.719c2.515.222 5.16.343 7.923.343m17.546-17.587c1.125-2.709 2.056-5.369 2.766-7.913-2.553-.702-5.373-1.282-8.428-1.707a91.97 91.97 0 0 1 2.992 4.748c.954 1.619 1.841 3.247 2.67 4.872m-35.097.001c.828-1.625 1.716-3.253 2.668-4.873a91.97 91.97 0 0 1 2.995-4.747c-3.055.424-5.875 1.005-8.428 1.707.71 2.544 1.641 5.203 2.765 7.913m40.739 14.208C71.264 47.886 76 43.866 76 40s-4.736-7.886-12.812-10.622c-.953 3.405-2.269 6.983-3.92 10.621 1.651 3.639 2.967 7.217 3.92 10.623m-46.378-.001c.952-3.404 2.267-6.982 3.918-10.619-1.651-3.638-2.967-7.217-3.919-10.622C8.734 32.116 4 36.135 4 40s4.735 7.885 12.81 10.621m35.074 2.586c3.055-.424 5.875-1.004 8.428-1.707-.711-2.544-1.642-5.204-2.766-7.914a92.61 92.61 0 0 1-2.67 4.873 91.97 91.97 0 0 1-2.992 4.748m-23.775-.001a93.04 93.04 0 0 1-2.993-4.746c-.952-1.619-1.839-3.246-2.667-4.87-1.124 2.708-2.054 5.367-2.764 7.91 2.552.701 5.371 1.281 8.424 1.706m-3.635 18.797c3.739 0 8.481-2.57 13.352-6.914-2.513-2.489-5.005-5.376-7.388-8.587-4.143-.439-8.002-1.161-11.478-2.116-1.084 4.898-1.279 9.226-.422 12.428.578 2.16 1.598 3.667 3.03 4.48.828.471 1.807.709 2.906.709m31.053-.006h0c1.099 0 2.076-.238 2.907-.709 1.43-.811 2.447-2.315 3.024-4.473.858-3.203.663-7.531-.421-12.428-3.477.955-7.337 1.677-11.481 2.116-2.38 3.21-4.871 6.096-7.381 8.585 4.871 4.34 9.613 6.908 13.352 6.909M40 63.04c1.857-1.844 3.713-3.927 5.522-6.206-1.801.107-3.559.333-5.439.333s-3.807-.226-5.609-.333c1.81 2.28 3.668 4.363 5.526 6.206M24.116 4.072c-1.799 0-3.085.338-4.523 1.153-2.399 1.361-4.055 3.691-4.921 6.926-.96 3.587-.877 8.302.236 13.681C5.419 29.189 0 34.325 0 40s5.42 10.811 14.909 14.168c-1.113 5.379-1.196 10.094-.235 13.681.865 3.233 2.52 5.563 4.921 6.926 1.44.816 3.17 1.163 4.968 1.163 4.487 0 9.753-2.535 15.438-7.466 5.684 4.926 11.039 7.524 15.525 7.525 1.799 0 3.441-.413 4.881-1.229 2.397-1.359 4.051-3.686 4.916-6.917.961-3.588.878-8.303-.235-13.681C74.579 50.812 80 45.676 80 40s-5.42-10.812-14.911-14.169c1.114-5.38 1.196-10.095.235-13.682-.866-3.231-2.521-5.558-4.919-6.917-1.439-.815-3.081-1.229-4.879-1.229-4.485 0-9.839 2.599-15.524 7.527-5.686-4.932-11.066-7.461-15.554-7.461l-.332.003zM19.72 24.377c-.462-2.324-.772-4.502-.789-6.412a16.77 16.77 0 0 1 .57-4.521c.507-1.892 1.368-3.194 2.559-3.87.676-.384 1.5-.644 2.423-.644 3.181 0 7.367 2.178 11.883 6.034-2.221 2.273-4.392 4.819-6.466 7.585-3.585.4-7.003 1.013-10.18 1.828h0zm23.918-9.411c4.515-3.853 8.711-5.963 11.888-5.963.924 0 1.737.195 2.414.579 1.189.674 2.049 1.973 2.555 3.861.874 2.818.761 6.564-.218 10.933-3.177-.814-6.594-1.428-10.178-1.826-2.073-2.765-4.242-5.311-6.461-7.584h0zm-6.965 7.094a68.9 68.9 0 0 1 3.328-3.678c1.119 1.148 2.231 2.378 3.326 3.678A93.3 93.3 0 0 0 40 22a93.34 93.34 0 0 0-3.327.06h0zm-4.048 5.24c2.405-.199 4.883-.341 7.375-.341s4.969.142 7.373.341c1.432 2.019 2.796 4.126 4.056 6.269a86.35 86.35 0 0 1 3.423 6.43c-1.051 2.192-2.202 4.354-3.424 6.432a87.92 87.92 0 0 1-4.056 6.269c-2.403.199-4.881.466-7.372.466s-4.972-.268-7.378-.467a87.37 87.37 0 0 1-4.058-6.269c-1.222-2.077-2.372-4.238-3.422-6.43 1.05-2.192 2.201-4.354 3.423-6.432 1.262-2.143 2.627-4.25 4.06-6.268h0zm24.797 6.724a94.03 94.03 0 0 0-1.683-2.99c-.57-.969-1.167-1.942-1.785-2.909 1.774.302 3.485.663 5.114 1.08-.467 1.566-1.018 3.178-1.646 4.819h0zm-36.494-4.819c1.629-.417 3.34-.778 5.114-1.08a91.83 91.83 0 0 0-1.786 2.908 94.03 94.03 0 0 0-1.683 2.99c-.628-1.639-1.178-3.251-1.645-4.818h0zm39.437 10.794c1.415-3.162 2.587-6.292 3.49-9.326C70.758 33.192 75 36.721 75 40s-4.242 6.808-11.145 9.327c-.904-3.035-2.075-6.166-3.49-9.328h0zm-44.223 9.327C9.241 46.807 5 43.278 5 40s4.241-6.807 11.141-9.326c.903 3.035 2.074 6.165 3.489 9.327-1.414 3.161-2.585 6.291-3.488 9.325h0zm37.811 2.55c.618-.968 1.216-1.941 1.785-2.909s1.135-1.973 1.684-2.991c.628 1.641 1.178 3.254 1.646 4.821a64.94 64.94 0 0 1-5.115 1.079h0zm-33.024-1.081c.467-1.566 1.017-3.177 1.644-4.816.548 1.017 1.111 2.017 1.682 2.988a91.08 91.08 0 0 0 1.785 2.908c-1.773-.303-3.483-.664-5.111-1.08h0zm3.545 20.208c-.924 0-1.736-.195-2.413-.579-1.19-.676-2.051-1.977-2.557-3.869-.831-2.845-.737-6.592.218-10.933 3.176.814 6.592 1.428 10.175 1.826 2.075 2.766 4.246 5.313 6.468 7.588-4.515 3.857-8.712 5.968-11.891 5.967h0 0zM50.098 57.45c3.584-.399 7.001-1.012 10.178-1.826 1.105 4.74 1.192 8.518.217 10.932-.505 1.889-1.364 3.188-2.552 3.861-.678.384-1.49.579-2.413.579v1l-.001-1c-3.18 0-7.377-2.11-11.891-5.961 2.22-2.273 4.389-4.819 6.462-7.585h0zM40 61.62a68.17 68.17 0 0 1-3.33-3.68c1.12.04 2.234.06 3.33.06a93.3 93.3 0 0 0 3.327-.06A68.14 68.14 0 0 1 40 61.62h0z"/></svg>

<svg xmlns="http://www.w3.org/2000/svg"  viewBox="0 0 80 80" width="160px" height="160px"><path fill="#8bb7f0" d="M46.5,40c0,3.593-2.907,6.5-6.5,6.5s-6.5-2.907-6.5-6.5s2.907-6.5,6.5-6.5S46.5,36.407,46.5,40z"/><path fill="#4e7ab5" d="M40,47c-3.859,0-7-3.14-7-7s3.141-7,7-7s7,3.14,7,7S43.859,47,40,47z M40,34c-3.309,0-6,2.691-6,6 s2.691,6,6,6s6-2.691,6-6S43.309,34,40,34z"/><g><path fill="#8bb7f0" d="M24.474,75.503c-1.711,0-3.269-0.392-4.632-1.164c-2.28-1.293-3.856-3.521-4.686-6.62 c-0.965-3.607-0.85-8.398,0.332-13.878C5.956,50.562,0.5,45.531,0.5,40c0-5.532,5.455-10.562,14.987-13.84 c-1.182-5.481-1.298-10.272-0.333-13.879c0.83-3.1,2.406-5.328,4.685-6.62c1.362-0.772,2.921-1.164,4.632-1.164 c4.388,0,9.891,2.73,15.531,7.698c5.64-4.963,11.141-7.691,15.524-7.691c1.711,0,3.269,0.392,4.632,1.164 c2.277,1.291,3.854,3.515,4.684,6.611c0.966,3.606,0.85,8.398-0.333,13.88C74.043,29.437,79.5,34.468,79.5,40 s-5.457,10.563-14.991,13.842c1.182,5.481,1.298,10.272,0.332,13.878c-0.83,3.097-2.405,5.321-4.68,6.612 c-1.364,0.772-2.923,1.164-4.633,1.164c-4.386,0-9.889-2.728-15.527-7.689C34.361,72.774,28.859,75.503,24.474,75.503z M19.337,55.006c-0.991,4.717-1.102,8.747-0.316,11.679c0.542,2.026,1.481,3.431,2.794,4.175c0.753,0.427,1.648,0.644,2.659,0.644 c3.394,0,7.862-2.282,12.621-6.437c-2.385-2.402-4.713-5.121-6.928-8.091C26.336,56.56,22.696,55.898,19.337,55.006z M42.906,65.065c4.758,4.151,9.227,6.431,12.621,6.432c1.011,0,1.906-0.217,2.661-0.644c1.309-0.742,2.246-2.144,2.787-4.167 c0.786-2.934,0.676-6.963-0.315-11.679c-3.362,0.892-7.003,1.554-10.833,1.97C47.613,59.947,45.288,62.665,42.906,65.065z M35.566,57.393c1.452,1.776,2.938,3.433,4.434,4.94c1.492-1.506,2.979-3.163,4.43-4.94C42.939,57.464,41.454,57.5,40,57.5 C38.545,57.5,37.059,57.464,35.566,57.393z M32.349,53.179C34.844,53.392,37.417,53.5,40,53.5c2.585,0,5.155-0.108,7.646-0.32 c1.486-2.084,2.903-4.268,4.214-6.495c1.268-2.155,2.461-4.404,3.547-6.686c-1.083-2.276-2.275-4.524-3.546-6.684 c-1.308-2.222-2.725-4.406-4.215-6.495C45.157,26.608,42.587,26.5,40,26.5c-2.588,0-5.159,0.108-7.647,0.321 c-1.49,2.086-2.909,4.27-4.219,6.495c-1.27,2.159-2.462,4.407-3.546,6.686c1.082,2.274,2.274,4.522,3.545,6.684 C29.437,48.901,30.854,51.084,32.349,53.179z M57.491,44.779c-0.706,1.346-1.438,2.666-2.185,3.934 c-0.753,1.282-1.554,2.568-2.386,3.836c2.374-0.366,4.645-0.835,6.771-1.4C59.101,49.1,58.362,46.963,57.491,44.779z M20.304,51.148c2.127,0.564,4.397,1.034,6.768,1.4c-0.837-1.276-1.638-2.563-2.386-3.835c-0.745-1.267-1.478-2.585-2.183-3.931 C21.636,46.956,20.898,49.091,20.304,51.148z M59.816,40c1.528,3.391,2.773,6.743,3.708,9.977C70.926,47.373,75.5,43.574,75.5,40 s-4.574-7.373-11.976-9.977C62.591,33.257,61.345,36.609,59.816,40z M16.472,30.025C9.073,32.628,4.5,36.427,4.5,40 c0,3.574,4.573,7.373,11.974,9.976c0.934-3.235,2.179-6.587,3.705-9.974C18.652,36.614,17.407,33.262,16.472,30.025z M20.303,28.852c0.594,2.054,1.332,4.19,2.2,6.368c0.704-1.342,1.436-2.661,2.184-3.932c0.752-1.279,1.553-2.565,2.388-3.836 C24.701,27.817,22.431,28.287,20.303,28.852z M52.922,27.451c0.837,1.277,1.638,2.563,2.386,3.837 c0.746,1.267,1.479,2.586,2.185,3.932c0.869-2.177,1.607-4.313,2.201-6.369C57.564,28.286,55.294,27.816,52.922,27.451z M24.471,8.497c-1.011,0-1.905,0.216-2.657,0.644c-1.312,0.744-2.252,2.149-2.795,4.175c-0.785,2.935-0.675,6.964,0.317,11.679 c3.36-0.892,7.002-1.555,10.834-1.971c2.217-2.971,4.545-5.688,6.927-8.088C32.337,10.779,27.866,8.497,24.471,8.497z M49.828,23.023c3.83,0.416,7.471,1.078,10.833,1.97c0.992-4.716,1.103-8.746,0.316-11.68c-0.542-2.022-1.48-3.424-2.79-4.166 c-0.754-0.427-1.649-0.644-2.661-0.644c-3.393,0-7.86,2.281-12.619,6.433C45.287,17.335,47.613,20.053,49.828,23.023z M40,22.5 c1.454,0,2.939,0.036,4.431,0.107c-1.45-1.774-2.936-3.43-4.429-4.938c-1.497,1.51-2.982,3.166-4.432,4.938 C37.061,22.536,38.546,22.5,40,22.5z"/><path fill="#4e7ab5" d="M24.471,4.997c4.494,0,9.996,2.91,15.532,7.867c5.535-4.953,11.034-7.86,15.524-7.86 c1.623,0,3.099,0.37,4.386,1.099c2.156,1.222,3.652,3.343,4.446,6.306c1.077,3.917,0.851,8.74-0.434,14.08 C73.147,29.57,79,34.431,79,40s-5.853,10.43-15.076,13.512c1.341,5.773,1.566,10.726,0.434,14.079 c-0.794,2.962-2.289,5.084-4.443,6.306C58.626,74.627,57.455,75,55.833,75c-0.001,0-0.416,0-0.417,0 c-4.492,0-9.882-2.91-15.416-7.861c-5.535,4.956-11.035,7.864-15.527,7.864c-1.623,0-3.099-0.37-4.386-1.099 c-2.158-1.225-3.655-3.349-4.448-6.314c-1.19-3.717-0.95-8.603,0.434-14.079C6.852,50.429,1,45.569,1,40 c0-5.568,5.852-10.429,15.072-13.511C15.385,23.43,14.946,20.59,14.931,18c-0.012-2.046,0.267-3.949,0.707-5.59 c0.794-2.966,2.29-5.09,4.448-6.314C21.372,5.366,22.848,4.997,24.471,4.997 M18.958,25.614c3.477-0.955,7.338-1.677,11.483-2.117 c2.382-3.21,4.875-6.096,7.386-8.584c-4.872-4.346-9.616-6.917-13.356-6.917c-1.099,0-2.075,0.238-2.904,0.709 c-1.433,0.813-2.452,2.32-3.031,4.481C17.678,16.388,17.873,20.716,18.958,25.614 M61.039,25.613 c1.085-4.898,1.28-9.227,0.422-12.429c-0.578-2.157-1.597-3.661-3.027-4.472c-0.83-0.471-1.809-0.709-2.907-0.709 c-3.737,0-8.478,2.568-13.349,6.91c2.51,2.488,5,5.374,7.38,8.583C53.701,23.936,57.562,24.658,61.039,25.613 M34.477,23.166 c1.802-0.107,3.609-0.2,5.488-0.2c1.879,0,3.755,0.094,5.557,0.2c-1.808-2.279-3.664-4.361-5.521-6.204 C38.144,18.805,36.287,20.887,34.477,23.166 M40,54c2.761,0,5.404-0.121,7.918-0.342c1.519-2.117,2.988-4.365,4.372-6.719 c1.353-2.299,2.577-4.626,3.67-6.939c-1.093-2.313-2.317-4.639-3.669-6.937c-1.385-2.355-2.853-4.602-4.373-6.719 C45.405,26.121,42.762,26,40,26s-5.406,0.121-7.92,0.343c-1.521,2.117-2.991,4.365-4.376,6.719 c-1.352,2.299-2.576,4.626-3.669,6.939c1.093,2.313,2.316,4.639,3.668,6.937c1.385,2.354,2.854,4.602,4.374,6.719 C34.592,53.879,37.237,54,40,54 M57.546,36.413c1.125-2.709,2.056-5.369,2.766-7.913c-2.553-0.702-5.373-1.282-8.428-1.707 c1.028,1.527,2.029,3.11,2.992,4.748C55.83,33.16,56.717,34.788,57.546,36.413 M22.449,36.414c0.828-1.625,1.716-3.253,2.668-4.873 c0.964-1.638,1.966-3.22,2.995-4.747c-3.055,0.424-5.875,1.005-8.428,1.707C20.394,31.045,21.325,33.704,22.449,36.414 M63.188,50.622C71.264,47.886,76,43.866,76,40s-4.736-7.886-12.812-10.622c-0.953,3.405-2.269,6.983-3.92,10.621 C60.919,43.638,62.235,47.216,63.188,50.622 M16.81,50.621c0.952-3.404,2.267-6.982,3.918-10.619 c-1.651-3.638-2.967-7.217-3.919-10.622C8.734,32.116,4,36.135,4,40C4,43.866,8.735,47.885,16.81,50.621 M51.884,53.207 c3.055-0.424,5.875-1.004,8.428-1.707c-0.711-2.544-1.642-5.204-2.766-7.914c-0.829,1.625-1.717,3.253-2.67,4.873 C53.913,50.097,52.912,51.68,51.884,53.207 M28.109,53.206c-1.028-1.527-2.029-3.109-2.993-4.746 c-0.952-1.619-1.839-3.246-2.667-4.87c-1.124,2.708-2.054,5.367-2.764,7.91C22.237,52.201,25.056,52.781,28.109,53.206 M24.474,72.003c3.739,0,8.481-2.57,13.352-6.914c-2.513-2.489-5.005-5.376-7.388-8.587c-4.143-0.439-8.002-1.161-11.478-2.116 c-1.084,4.898-1.279,9.226-0.422,12.428c0.578,2.16,1.598,3.667,3.03,4.48C22.396,71.765,23.375,72.003,24.474,72.003 M55.527,71.997L55.527,71.997c1.099,0,2.076-0.238,2.907-0.709c1.43-0.811,2.447-2.315,3.024-4.473 c0.858-3.203,0.663-7.531-0.421-12.428c-3.477,0.955-7.337,1.677-11.481,2.116c-2.38,3.21-4.871,6.096-7.381,8.585 C47.046,69.428,51.788,71.996,55.527,71.997 M40,63.04c1.857-1.844,3.713-3.927,5.522-6.206c-1.801,0.107-3.559,0.333-5.439,0.333 c-1.881,0-3.807-0.226-5.609-0.333C36.284,59.114,38.142,61.197,40,63.04 M24.116,4.072c-1.799,0-3.085,0.338-4.523,1.153 c-2.399,1.361-4.055,3.691-4.921,6.926c-0.96,3.587-0.877,8.302,0.236,13.681C5.419,29.189,0,34.325,0,40 c0,5.676,5.42,10.811,14.909,14.168c-1.113,5.379-1.196,10.094-0.235,13.681c0.865,3.233,2.52,5.563,4.921,6.926 c1.44,0.816,3.17,1.163,4.968,1.163c4.487,0,9.753-2.535,15.438-7.466c5.684,4.926,11.039,7.524,15.525,7.525 c1.799,0,3.441-0.413,4.881-1.229c2.397-1.359,4.051-3.686,4.916-6.917c0.961-3.588,0.878-8.303-0.235-13.681 C74.579,50.812,80,45.676,80,40s-5.42-10.812-14.911-14.169c1.114-5.38,1.196-10.095,0.235-13.682 c-0.866-3.231-2.521-5.558-4.919-6.917c-1.439-0.815-3.081-1.229-4.879-1.229c-4.485,0-9.839,2.599-15.524,7.527 c-5.686-4.932-11.066-7.461-15.554-7.461L24.116,4.072z M19.72,24.377c-0.462-2.324-0.772-4.502-0.789-6.412 c-0.015-1.72,0.221-3.217,0.57-4.521c0.507-1.892,1.368-3.194,2.559-3.87c0.676-0.384,1.5-0.644,2.423-0.644 c3.181,0,7.367,2.178,11.883,6.034c-2.221,2.273-4.392,4.819-6.466,7.585C26.315,22.949,22.897,23.562,19.72,24.377L19.72,24.377z M43.638,14.966c4.515-3.853,8.711-5.963,11.888-5.963c0.924,0,1.737,0.195,2.414,0.579c1.189,0.674,2.049,1.973,2.555,3.861 c0.874,2.818,0.761,6.564-0.218,10.933c-3.177-0.814-6.594-1.428-10.178-1.826C48.026,19.785,45.857,17.239,43.638,14.966 L43.638,14.966z M36.673,22.06c1.096-1.3,2.209-2.53,3.328-3.678c1.119,1.148,2.231,2.378,3.326,3.678 C42.208,22.02,41.095,22,40,22S37.793,22.02,36.673,22.06L36.673,22.06z M32.625,27.3c2.405-0.199,4.883-0.341,7.375-0.341 c2.491,0,4.969,0.142,7.373,0.341c1.432,2.019,2.796,4.126,4.056,6.269c1.222,2.078,2.373,4.239,3.423,6.43 c-1.051,2.192-2.202,4.354-3.424,6.432c-1.261,2.144-2.624,4.25-4.056,6.269c-2.403,0.199-4.881,0.466-7.372,0.466 c-2.493,0-4.972-0.268-7.378-0.467c-1.433-2.018-2.797-4.125-4.058-6.269c-1.222-2.077-2.372-4.238-3.422-6.43 c1.05-2.192,2.201-4.354,3.423-6.432C29.827,31.425,31.192,29.318,32.625,27.3L32.625,27.3z M57.422,34.024 c-0.549-1.018-1.112-2.018-1.683-2.99c-0.57-0.969-1.167-1.942-1.785-2.909c1.774,0.302,3.485,0.663,5.114,1.08 C58.601,30.771,58.05,32.383,57.422,34.024L57.422,34.024z M20.928,29.205c1.629-0.417,3.34-0.778,5.114-1.08 c-0.619,0.967-1.216,1.94-1.786,2.908c-0.571,0.972-1.134,1.972-1.683,2.99C21.945,32.384,21.395,30.772,20.928,29.205 L20.928,29.205z M60.365,39.999c1.415-3.162,2.587-6.292,3.49-9.326C70.758,33.192,75,36.721,75,40s-4.242,6.808-11.145,9.327 C62.951,46.292,61.78,43.161,60.365,39.999L60.365,39.999z M16.142,49.326C9.241,46.807,5,43.278,5,40s4.241-6.807,11.141-9.326 c0.903,3.035,2.074,6.165,3.489,9.327C18.216,43.162,17.045,46.292,16.142,49.326L16.142,49.326z M53.953,51.876 c0.618-0.968,1.216-1.941,1.785-2.909c0.572-0.972,1.135-1.973,1.684-2.991c0.628,1.641,1.178,3.254,1.646,4.821 C57.438,51.212,55.727,51.574,53.953,51.876L53.953,51.876z M20.929,50.795c0.467-1.566,1.017-3.177,1.644-4.816 c0.548,1.017,1.111,2.017,1.682,2.988c0.569,0.968,1.166,1.94,1.785,2.908C24.267,51.572,22.557,51.211,20.929,50.795 L20.929,50.795z M24.474,71.003c-0.924,0-1.736-0.195-2.413-0.579c-1.19-0.676-2.051-1.977-2.557-3.869 c-0.831-2.845-0.737-6.592,0.218-10.933c3.176,0.814,6.592,1.428,10.175,1.826c2.075,2.766,4.246,5.313,6.468,7.588 C31.85,68.893,27.653,71.004,24.474,71.003L24.474,71.003L24.474,71.003z M50.098,57.45c3.584-0.399,7.001-1.012,10.178-1.826 c1.105,4.74,1.192,8.518,0.217,10.932c-0.505,1.889-1.364,3.188-2.552,3.861c-0.678,0.384-1.49,0.579-2.413,0.579v1l-0.001-1 c-3.18,0-7.377-2.11-11.891-5.961C45.856,62.762,48.025,60.216,50.098,57.45L50.098,57.45z M40,61.62 c-1.12-1.148-2.234-2.379-3.33-3.68C37.79,57.98,38.904,58,40,58c1.095,0,2.208-0.02,3.327-0.06 C42.232,59.241,41.119,60.472,40,61.62L40,61.62z"/></g></svg>
